X:1
T:G. Pierluigi da Palestrina
T:            1525-1594
T:Gloriosi Principes Terrae
%%score [ 1 2 3 4 ]
L:1/8
Q:1/4=120
M:2/2
K:F
V:1 treble-8 nm="Tenore 1" snm="T 1"
V:2 treble-8 nm="Tenore 2" snm="T 2"
V:3 treble-8 nm="Tenore 3" snm="T 3"
V:4 bass nm="Basso" snm="B"
V:1
 z8 | z8 | z8 | z8 | z8 | z8 | z8 | z4 c4 | c4 d4 | c2 c3 c B2 | A4 G4 | z2 g3 g f2 | edef e2 d2- | %13
w: |||||||Glo-|ri- o-|si prin- ci- pes|ter- rae|prin- ci- pes|ter- * * * * *|
 dc c4 B2 | c8 | z4 c4 | c4 d4 | c2 c3 B B2 | A4 G4 | F2 f4 f2 | f2 e2 d2 c2 | B4 A3 B | c8 | z8 | %24
w: |rae|Glo-|ri- o-|si prin- ci- pes|ter- *|rae quo- mo-|do in vi- ta|su- a _|_||
 z8 | z8 | z4 d3 d | d2 f2 _e2 d2 | g4 f2 d2- | d2 A2 d4 | B4 A2 f2- | f2 c2 f2 e2 | de f4 ed | %33
w: ||quo- mo-|do in vi- ta|su- a di-|* le- xe-|runt se, di-|* le- xe- *|* * runt _ _|
 e8 | z8 | z4 A3 A | A2 c2 B2 A2 | d4 ^c4 | d6 A2 | d4 B4 | A4 d4 | e4 f4- | f4 d4 | _e8 | %44
w: se,||quo- mo-|do in vi- ta|su- a|di- le-|xe- runt|se, i-|ta et|_ in|mor-|
 d2 B4 c2 | d3 c B2 A2 | G4 F4 | z8 | z4 A4 | =B4 c4 | A4 B4- | B2 c2 d4 | c8- | c8 | z4 z2 F2- | %55
w: te non sunt|se- * * pa-|ra- ti.||i-|ta et|in mor-||te|_|non|
 F2 G2 A2 !courtesy!=B2 | c4 d2 d2- | d2 c2 B3 A | G2 F2 B3 c | de f4 e2 | f2 d4 c2 | B2 B2 d4 | %62
w: _ sunt se- pa-|ra- ti. non|_ sunt se- *|* pa- ra- *||ti. non sunt|se- pa- ra-|
 c8 |] %63
w: ti.|
V:2
 z8 | z4 c4 | c4 d4 | c2 c3 c B2 | A4 G4 | A3 G FE G2- | GF F4 E2 | F8 | z2 G2 A2 B2 | G4 A2 G2- | %10
w: |Glo-|ri- o-|si prin- ci- pes|ter- rae|ter- * * * *||rae|prin- ci- pes|ter- * *|
 GF F4 ED | E4 z4 | G4 G4 | A4 G2 G2- | GG F2 EC F2- | F2 ED E4 | F2 c4 =B2 | c2 A2 G3 G | c4 c4 | %19
w: |rae|Glo- ri-|o- si prin-|* ci- pes ter- * *||rae Glo- ri-|o- si prin- ci-|pes ter-|
 A3 B c4 | z8 | z8 | A3 A A2 c2 | B2 A2 d4 | c2 A2 B2 c2 | B2 A3 G G2- | GF/E/ ^F2 G4 | z8 | %28
w: rae _ _|||quo- mo- do in|vi- ta su-|a di- le- xe-|runt se, _ _|_ _ _ _ _||
 z4 A3 A | A2 c2 B2 A2 | d4 cBAG | F2 F4 C2 | D4 B4 | A2 c4 G2 | B2 c2 FGAF | G2 A4 D2 | %36
w: quo- mo-|do in vi- ta|su- a _ _ _|_ di- le-|xe- runt|se, di- le-|xe- runt se, _ _ _|_ di- le-|
 F2 E2 FG A2- | AG/F/ G2 A2 A2- | A2 D2 d3 c | B2 G2 d4- | d4 A4 | c8 | d6 G2 | G8 | F4 z4 | %45
w: xe- runt se, _ _|_ _ _ _ _ di-|* le- xe- *|* runt se,|_ i-|ta|et in|mor-|te|
 z4 d4- | d2 c2 B2 A2 | G2 F4 E2 | F4 C4 | D4 E4 | ^F4 G4 | F8- | F4 A4- | A2 G2 F3 E | %54
w: non|_ sunt se- pa-|ra- * *|ti. i-|ta et|in mor-|te|_ non|_ sunt se- *|
 D2 C2 FGAB | c4 F4 | G4 B4- | B2 c2 d3 c | B2 A2 G4 | F2 d4 c2 | B2 A2 B2 c2 | d3 c B4 | A8 |] %63
w: * pa- ra- * * *||ti. non|_ sunt se- *|* pa- ra-|ti. non sunt|se- pa- ra- *||ti.|
V:3
 z8 | z8 | z8 | z8 | z8 | c4 c4 | d4 c2 c2- | cc B2 A3 G | FE G3 F F2- | F2 E2 F2 G2 | c4 z2 c2- | %11
w: |||||Glo- ri-|o- si prin-|* ci- pes ter- *|||rae Glo-|
 c2 c2 A3 B | c4 C2 D2 | E2 F2 D4 | C4 z4 | G4 G4 | A4 G2 G2- | GG F2 ED G2- | GF F3 E/D/ E2 | %19
w: * ri- o- *|* si prin-|ci- pes ter-|rae|Glo- ri-|o- si prin-|* ci- pes ter- * *||
 F4 A3 A | A2 c2 B2 A2 | d4 c4 | z4 z2 C2 | F2 E2 F2 G2 | AGFE F2 E2 | F4 D2 d2- | dc c4 BA | %27
w: rae quo- mo-|do in vi- ta|su- a|in|vi- ta su- a|di- * * * * le-|xe- runt di-||
 BG A2 B4- | B2 c2 d4 | z8 | z8 | A3 A A2 c2 | B2 A2 d4 | c2 A4 E2 | G2 A3 G F2- | F2 E2 F4 | %36
w: * * le- xe-|* runt se,|||quo- mo- do in|vi- ta su-|a di- le-|xe- runt _ _|_ _ se,|
 z4 z2 F2- | F2 D2 E4 | ^F8 | G4 z2 G2- | G2 ^FE F4 | G4 A4- | A4 =B4 | c4 B4 | B2 d4 c2 | %45
w: di-|* le- xe-|runt|se, i-||ta et|_ in|mor- *|te non sunt|
 B2 A2 G2 F2 | F2 E2 F4 | z8 | z4 E4 | G6 A2- | A2 D4 d2- | d2 c2 B4 | A4 F4- | F2 G2 A3 G | %54
w: se- pa- ra- *|* * ti.||i-|ta et|_ in mor-||te non|_ sunt se- *|
 F2 E2 DEFG | A2 G3 F F2- | F2 E2 F4 | z4 z2 B2- | B2 c2 d3 c | B2 A2 G4 | F8- | F8- | F8 |] %63
w: * pa- ra- * * *||* * ti.|non|_ sunt se- *|* pa- ra-|ti.|_||
V:4
 F,4 F,4 | G,4 F,2 F,2- | F,F, E,2 D,E,F,G, | A,3 G, F,E, G,2- | G,F, F,4 E,2 | F,2 F,3 C, _E,2 | %6
w: Glo- ri-|o- si prin-|* ci- pes ter- * * *|||rae prin- ci- pes|
 D,3 C,/B,,/ A,,B,, C,2 | A,,2 B,,2 F,,2 F,2- | F,C, _E,2 D,2 B,,2 | C,4 z4 | z4 C,4 | C,4 D,4 | %12
w: ter- * * * * *|* * rae prin-|* ci- pes ter- *|rae|Glo-|ri- o-|
 C,2 C,3 C, B,,2 | A,,2 F,,2 G,,4 | A,,6 F,,2 | C,8 | z4 G,,3 G,, | C,2 F,,2 G,,2 G,,2 | A,,4 C,4 | %19
w: si prin- ci- pes|ter- * *||rae|Glo- ri-|o- si prin- ci-|pes ter-|
 F,,8 | z8 | z4 F,4- | F,2 F,2 F,2 E,2 | D,2 C,2 B,,4 | A,,2 D,4 A,,2 | D,4 B,,4 | A,,4 G,,2 G,2- | %27
w: rae||quo-|* mo- do in|vi- ta su-|a di- le-|xe- runt|_ se, di-|
 G,2 D,2 G,4 | _E,4 D,4 | F,3 E, D,2 D,2 | G,,2 B,,2 F,,4- | F,,4 z4 | z8 | A,,3 A,, A,,2 C,2 | %34
w: * le- xe-|runt se,|di- * * le-|xe- runt se,|_||quo- mo- do in|
 B,,2 A,,2 D,4 | C,4 D,4- | D,2 A,,2 D,4 | B,,4 A,,4 | D,4 D,4 | G,,4 G,,4 | D,4 D,4 | C,4 F,4- | %42
w: vi- ta su-|a di-|* le- xe-|runt se,|di- le-|xe- runt|se, i-|ta et|
 F,4 G,4 | C,3 D, _E,4 | B,,4 z4 | z4 B,,4- | B,,2 C,2 D,3 C, | B,,2 A,,2 G,,4 | F,,4 A,,4 | %49
w: _ in|mor- * *|te|non|_ sunt se- *|* pa- ra-|ti. i-|
 G,,4 C,4 | D,4 G,,3 A,, | B,,8 | F,,8 | z4 z2 F,2- | F,2 G,2 A,3 G, | F,2 E,2 D,4 | C,4 B,,4 | %57
w: ta et|in mor- *||te|non|_ sunt se- *|* pa- ra-|* ti.|
 z8 | z8 | B,,6 C,2 | D,3 C, B,,2 A,,2 | B,,8 | F,,8 |] %63
w: ||non sunt|se- * * pa-|ra-|ti.|

